X:1
T:Rosewood
T:George Rose Wood of Aberdeen
C:J.Scott Skinner
M:6/8
L:1/8
K:A
e \
| "A"aga "E7"efg | "A"aed cBA | "A"aga cde | "Bm"fdB "E7"B2e \
| "A"aga "E7"efg | "A"aed cBA | "D"dcd "E7"efg | "A"aAA A2 :|
|: B \
| "A"Ace Ace | "D"fdd d3  | "Bm"^def Bdf | "E7"gee e2g \
| "A"agf edc | "D"fed "A"cBA | "E7" Edc BAB | "A"cAA A2 :|
